client/src/assets/Friends.svg

<svg width="24" height="24" viewBox="0 0 24 24" fill="none" xmlns="http://www.w3.org/2000/svg">
<path d="M5 15V12H8V10H5V7H3V10H0V12H3V15H5ZM12 13.75C9.66 13.75 5 14.92 5 17.25V19H19V17.25C19 14.92 14.34 13.75 12 13.75ZM7.34 17C8.18 16.42 10.21 15.75 12 15.75C13.79 15.75 15.82 16.42 16.66 17H7.34ZM12 12C13.93 12 15.5 10.43 15.5 8.5C15.5 6.57 13.93 5 12 5C10.07 5 8.5 6.57 8.5 8.5C8.5 10.43 10.07 12 12 12ZM12 7C12.83 7 13.5 7.67 13.5 8.5C13.5 9.33 12.83 10 12 10C11.17 10 10.5 9.33 10.5 8.5C10.5 7.67 11.17 7 12 7ZM17 12C18.93 12 20.5 10.43 20.5 8.5C20.5 6.57 18.93 5 17 5C16.76 5 16.52 5.02 16.29 5.07C17.05 6.01 17.5 7.2 17.5 8.5C17.5 9.8 17.03 10.98 16.27 11.92C16.51 11.97 16.75 12 17 12ZM19.32 14.02C20.32 14.83 21 15.89 21 17.25V19H24V17.25C24 15.56 21.56 14.49 19.32 14.02Z" fill="black"/>
</svg>

<?xml version="1.0" encoding="utf-8"?>
<!-- Generator: Adobe Illustrator 25.2.3, SVG Export Plug-In . SVG Version: 6.00 Build 0)  -->
<svg version="1.1" id="Layer_1" xmlns="http://www.w3.org/2000/svg" xmlns:xlink="http://www.w3.org/1999/xlink" x="0px" y="0px"
	 viewBox="0 0 24 24" style="enable-background:new 0 0 24 24;" xml:space="preserve">
<style type="text/css">
	.st0{fill:#FBBC05;}
</style>
<path class="st0" d="M5,15v-3h3v-2H5V7H3v3H0v2h3v3H5z M12,13.8c-2.3,0-7,1.2-7,3.5V19h14v-1.8C19,14.9,14.3,13.8,12,13.8z M7.3,17
	c0.8-0.6,2.9-1.2,4.7-1.2s3.8,0.7,4.7,1.2H7.3z M12,12c1.9,0,3.5-1.6,3.5-3.5S13.9,5,12,5S8.5,6.6,8.5,8.5S10.1,12,12,12z M12,7
	c0.8,0,1.5,0.7,1.5,1.5S12.8,10,12,10s-1.5-0.7-1.5-1.5S11.2,7,12,7z M17,12c1.9,0,3.5-1.6,3.5-3.5S18.9,5,17,5
	c-0.2,0-0.5,0-0.7,0.1C17,6,17.5,7.2,17.5,8.5S17,11,16.3,11.9C16.5,12,16.8,12,17,12z M19.3,14c1,0.8,1.7,1.9,1.7,3.2V19h3v-1.8
	C24,15.6,21.6,14.5,19.3,14z"/>
</svg>
